X:1
T:Fragments (1917)
T:Fragments (1917)
T:Sergei Rachmaninoff
T:by IMSLP - Public Domain
T:by IMSLP - Public Domain
C:Sergei Rachmaninoff
Z:by IMSLP - Public Domain
%%score { ( 1 3 ) | ( 2 4 ) }
L:1/8
Q:1/4=70
M:3/4
K:Ab
V:1 treble nm="Piano" snm="Pno."
V:3 treble 
V:2 bass 
V:4 bass 
V:1
"^Andante semplice"!p!!<(! [Ec]2 !tenuto![=Dc]4!<)! |!>(! (cB/c/)!>)! c4 | (c2 e4) | %3
 (c!>(!B/c/) !tenuto![Ec]3!>)!!<(! [=DG]!<)! |!mf! !tenuto![=DB]3 ([CA]/[DB]/ [Ec])([CA]/[DG]/ | %5
 [=DB]3) ([CA]/[DB]/ [Ec])([CA]/[DG]/ |!mf! !tenuto![=DB]2 [CA]2) (FE) | %7
!<(! (!tenuto!E2 =D3!<)!!>(! !tenuto!_D)!>)! | %8
!p! (!tenuto![B,D]/[A,C]/)!tenuto![A,C]- [E,A,C]2 (6:4:6z/ (E/!<(!G/A/=B/c/!<)! | %9
!mp![Q:1/4=92]"^Più mosso" (6:4:6!3!e/!4!f/!1!=d/!<(!!3!e/!2!e/!3!f/ (6:4:6!2!e/!3!f/!1!d/!3!e/!2!e/!3!f/ (6:4:6e/f/!<)!d/e/e/f/) | %10
 z .g z .c' z .g | %11
 (6:4:6(!2!=d/!3!e/!1!c/!<(!!3!d/!2!d/e/ (6:4:6!2!_d/!4!e/!1!c/!3!d/!2!d/!3!e/ (6:4:6d/e/!<)!c/d/d/e/) | %12
 z .f z .b z .f |!mf! (6:4:6(^c/^d/^B/c/c/d/ (6:4:6c/d/B/c/c/d/)"^< >"!>(!{cd} !trill(!Tc2!>)! | %14
[M:2/4]!p! [^G,^C=E] (^c'{[=d^f]^g}[df][^G^c=e]-) | c'2 z2 |[M:4/4] !tenuto!^c2 z2 ^g z z2 | %17
[M:3/4]!p![Q:1/4=70]"^Come prima"!<(! [_E=c]2 !tenuto![=Dc]4!<)! |!>(! (cB/c/)!>)! c4 | %19
!<(! (c2 e4)!<)! | (c!>(!B/c/)!p! !tenuto![Ec]3!>)! ([=DG] | %21
 !tenuto![=DB]3) ([CA]/[DB]/ [Ec])([CA]/[DG]/ | !tenuto![=DB]3) ([CA]/[DB]/ [Ec])([CA]/[DG]/ | %23
 !tenuto![=DB]2 [CA]2) (FE) |!<(! (E2 !tenuto!=D3!<)!!>(! _D)!>)! | %25
!pp! ([_B,D]/[A,C]/)!tenuto![A,C]- !fermata![E,A,C]4 |] %26
V:2
 [A,C]2 !tenuto![F,A,]4 | ([A,C][F,A,]) [C,G,]4 | ([A,C]2 [E,B,]4) | (CA,) G,3 =F, | %4
 F,3 (E,/F,/ G,)(E,/F,/ | F,3) (E,/F,/ G,)(E,/F,/ | !tenuto!F,2 E,2) (=D,_D,) | %7
 (C,3 =B,,- B,,_B,,) | !tenuto![A,,,A,,]!tenuto![A,,,A,,]- [A,,,A,,]2 z2 | %9
 z/ (F,,/C,/A,/ C,/A,/=D/A,/ E/=B/) z | z (.C,,.G,.G .C2) | %11
 z/ (E,,/B,,/_G,/ B,,/G,/C/G,/ D/=A/) z | z (.B,,,.F,.F .B,2) | ^F,,/^D,/^G,/(=A,/"^rit." =B,4) | %14
[M:2/4]"^a tempo" ([^C,,,^C,,]/^G,,/^F,/=D/{=A=B} A/^C/=E,/G,,/) | %15
 z/ (^C,,/^G,,/^F,/) z/ (^G,/^C,/G,,/) |[M:4/4] z/ (^C,,/^G,,/^F,/) (!tenuto!A,4 !tenuto!_B,2) | %17
[M:3/4] [_A,=C]2 !tenuto![F,A,]4 | ([A,C][F,A,]) [C,G,]4 | ([A,C]2 [E,B,]4) | (CA,) G,3 =F, | %21
 !tenuto!F,3 (E,/F,/ G,)(E,/F,/ | !tenuto!F,3) (E,/F,/ G,)(E,/F,/ | !tenuto!F,2 E,2) (=D,_D,) | %24
 [F,,C,]2 [=E,,=B,,]4 | [A,,,A,,]!tenuto![A,,,A,,]- !fermata![A,,,A,,]4 |] %26
V:3
 x6 | (E=D) E4 | (E2 A3 _G) | (^F=D) x4 | x6 | x6 | x4 B,2 | A,4 x2 | E,E,- x4 | x6 | %10
 (6:4:6(e/!>(!f/=d/e/d/f/ (6:4:6e/f/d/f/d/f/ (6:4:6d/e/!>)!c/d/c/e/) | x6 | %12
 (6:4:6(d/e/!>(!c/d/c/e/ (6:4:6d/e/c/e/c/e/ (6:4:6c/d/B/!>)!c/B/d/) | %13
 !tenuto!=A2 ([=E^G]2 !trill)![^D^F]2) |[M:2/4] x4 | [Gce]"_dim." =c{.[=D^F]^G}[DF][^C=E]- | %16
[M:4/4] [CE]4 x4 |[M:3/4] x6 | (E=D) E4 | (E2 !tenuto!A3 _G) | (^F=D) x4 | x6 | x6 | x4 B,2 | %24
 A,2 [G,=B,]4 | _E,E,- x4 |] %26
V:4
 x6 | x6 | x6 | (A,=F,/^F,/) C,4 | A,,6 | A,,6 | A,,6 | F,,6 | x6 | x6 | x6 | x6 | x6 | x2 =A,4 | %14
[M:2/4] x4 | x4 |[M:4/4] x2 (5:4:5=A,/[I:staff -1]^C/=E/c/^G/"^rit."[I:staff +1] x4 |[M:3/4] x6 | %18
 x6 | x6 | (A,=F,/^F,/) C,4 | A,,6 | A,,6 | A,,6 | x6 | x6 |] %26

